X:1
T:Dublin Reel
R:Reel
M:C|
K:D
DF {G}((3FGF) DFEF| DF {G}((3FGF) AFEF|DF {G}((3FGF) D3 d|(3cdc Bc AFEF|
!DF {G}((3FGF) DFEF| DF {G}((3FGF) AFEF|DF {G}((3FGF) D3 d|(3cdc Bc
AFEF||
!A2 (3AAA e2 (3AAA|ABcA BGEB|A2 (3AAA e2 (3AAA|AGEF GABG|
!A2 (3AAA e2 (3AAA|ABcA BGEB|A2 (3AAA a2 ga| ~f2 ec dBAF||
